X: 1
T: The Boatie Rows
B: RSCDS Graded
S: handwritten MS by Barbara McOwen
R: march, air
Z: 2005 John Chambers <jc:trillian.mit.edu>
M: C|
L: 1/8
K: G
G2 \
| "G"B2d2 d3e | "G"d2g2 "D"agfe | "G"d2B2 "Em"A3G | "Am"B2A2 "D"A2G2 \
| "G"B2d2 d3e | "G"d2g2 "Am"agfe | "G"d2B2 "D7"A3B | "G"G4 G2 :|
|: d2 \
| "G"g2d2 d2ef | "G"g2d2 d2g2 | "C"e3d e2g2 | "Am"a4 "D"a2f2 \
| "G"g2b2 "C"e2g2 | "G"d3g d2B2 | "Am"A3G "D7"A2B2 | "G"G4 G2 :|
